static/img/olake/olake-saas.svg

<svg width="132" height="117" viewBox="0 0 132 117" fill="none" xmlns="http://www.w3.org/2000/svg">
<g opacity="0.33">
<rect x="97.341" y="9.23919" width="33.9992" height="33.9992" rx="9.3378" fill="#1F1F1F"/>
<rect x="97.341" y="9.23919" width="33.9992" height="33.9992" rx="9.3378" stroke="#333333" stroke-width="0.478861"/>
</g>
<g opacity="0.33">
<rect x="9.75651" y="16.7074" width="26.4397" height="26.4397" rx="7.26161" fill="#1F1F1F"/>
<rect x="9.75651" y="16.7074" width="26.4397" height="26.4397" rx="7.26161" stroke="#333333" stroke-width="0.37239"/>
</g>
<g filter="url(#filter0_d_163_171)">
<rect x="28.7188" y="21.3083" width="74.1394" height="74.1394" rx="20.5943" fill="#1F1F1F"/>
<rect x="29.2336" y="21.8232" width="73.1097" height="73.1097" rx="20.0794" stroke="#333333" stroke-width="1.02971"/>
<path d="M65.833 46.8689C70.2993 46.8689 73.92 50.4895 73.92 54.9558C73.92 55.087 73.9169 55.2174 73.9107 55.347C76.6077 56.296 78.5411 58.866 78.5411 61.8875C78.5411 65.7157 75.4377 68.8191 71.6094 68.8191H60.0567C56.2284 68.8191 53.125 65.7157 53.125 61.8875C53.125 58.866 55.0583 56.296 57.7554 55.347C57.7492 55.2174 57.7461 55.087 57.7461 54.9558C57.7461 50.4895 61.3668 46.8689 65.833 46.8689ZM65.833 49.1794C62.6428 49.1794 60.0567 51.7656 60.0567 54.9558C60.0567 55.05 60.0589 55.1437 60.0633 55.2371L60.1452 56.9555L58.5223 57.5266C56.6883 58.1718 55.4356 59.9107 55.4356 61.8875C55.4356 64.4396 57.5045 66.5086 60.0567 66.5086H71.6094C74.1615 66.5086 76.2305 64.4396 76.2305 61.8875C76.2305 59.3343 74.1626 57.2664 71.6094 57.2664C69.568 57.2664 67.8359 58.59 67.2242 60.4257L65.0317 59.6949C65.9491 56.9412 68.5479 54.9558 71.6094 54.9558C71.6094 51.7656 69.0232 49.1794 65.833 49.1794Z" fill="#CACACA"/>
</g>
<g opacity="0.33">
<rect x="0.239431" y="81.7238" width="33.9992" height="33.9992" rx="9.3378" fill="#1F1F1F"/>
<rect x="0.239431" y="81.7238" width="33.9992" height="33.9992" rx="9.3378" stroke="#333333" stroke-width="0.478861"/>
</g>
<g opacity="0.33">
<rect x="97.0065" y="80.4477" width="26.4397" height="26.4397" rx="7.26161" fill="#1F1F1F"/>
<rect x="97.0065" y="80.4477" width="26.4397" height="26.4397" rx="7.26161" stroke="#333333" stroke-width="0.37239"/>
</g>
<defs>
<filter id="filter0_d_163_171" x="8.12447" y="0.714071" width="115.328" height="115.328" filterUnits="userSpaceOnUse" color-interpolation-filters="sRGB">
<feFlood flood-opacity="0" result="BackgroundImageFix"/>
<feColorMatrix in="SourceAlpha" type="matrix" values="0 0 0 0 0 0 0 0 0 0 0 0 0 0 0 0 0 0 127 0" result="hardAlpha"/>
<feOffset/>
<feGaussianBlur stdDeviation="10.2971"/>
<feComposite in2="hardAlpha" operator="out"/>
<feColorMatrix type="matrix" values="0 0 0 0 0.619694 0 0 0 0 0.619694 0 0 0 0 0.619694 0 0 0 0.25 0"/>
<feBlend mode="normal" in2="BackgroundImageFix" result="effect1_dropShadow_163_171"/>
<feBlend mode="normal" in="SourceGraphic" in2="effect1_dropShadow_163_171" result="shape"/>
</filter>
</defs>
</svg>

<svg xmlns="http://www.w3.org/2000/svg" width="132" height="117" fill="none" viewBox="0 0 132 117"><g opacity=".33"><rect width="33.999" height="33.999" x="97.341" y="9.239" fill="#1f1f1f" rx="9.338"/><rect width="33.999" height="33.999" x="97.341" y="9.239" stroke="#333" stroke-width=".479" rx="9.338"/></g><g opacity=".33"><rect width="26.44" height="26.44" x="9.757" y="16.707" fill="#1f1f1f" rx="7.262"/><rect width="26.44" height="26.44" x="9.757" y="16.707" stroke="#333" stroke-width=".372" rx="7.262"/></g><g filter="url(#a)"><rect width="74.139" height="74.139" x="28.719" y="21.308" fill="#1f1f1f" rx="20.594"/><rect width="73.11" height="73.11" x="29.234" y="21.823" stroke="#333" stroke-width="1.03" rx="20.079"/><path fill="#cacaca" d="M65.833 46.869a8.087 8.087 0 0 1 8.078 8.478 6.932 6.932 0 0 1-2.301 13.472H60.056a6.932 6.932 0 0 1-2.302-13.472q-.009-.195-.009-.391a8.087 8.087 0 0 1 8.087-8.087m0 2.31a5.776 5.776 0 0 0-5.77 6.058l.082 1.718-1.623.572a4.623 4.623 0 0 0 1.535 8.982h11.552a4.621 4.621 0 1 0-4.385-6.083l-2.192-.731a6.935 6.935 0 0 1 6.577-4.74 5.776 5.776 0 0 0-5.776-5.776"/></g><g opacity=".33"><rect width="33.999" height="33.999" x=".239" y="81.724" fill="#1f1f1f" rx="9.338"/><rect width="33.999" height="33.999" x=".239" y="81.724" stroke="#333" stroke-width=".479" rx="9.338"/></g><g opacity=".33"><rect width="26.44" height="26.44" x="97.007" y="80.448" fill="#1f1f1f" rx="7.262"/><rect width="26.44" height="26.44" x="97.007" y="80.448" stroke="#333" stroke-width=".372" rx="7.262"/></g><defs><filter id="a" width="115.328" height="115.328" x="8.124" y=".714" color-interpolation-filters="sRGB" filterUnits="userSpaceOnUse"><feFlood flood-opacity="0" result="BackgroundImageFix"/><feColorMatrix in="SourceAlpha" result="hardAlpha" values="0 0 0 0 0 0 0 0 0 0 0 0 0 0 0 0 0 0 127 0"/><feOffset/><feGaussianBlur stdDeviation="10.297"/><feComposite in2="hardAlpha" operator="out"/><feColorMatrix values="0 0 0 0 0.619694 0 0 0 0 0.619694 0 0 0 0 0.619694 0 0 0 0.25 0"/><feBlend in2="BackgroundImageFix" result="effect1_dropShadow_163_171"/><feBlend in="SourceGraphic" in2="effect1_dropShadow_163_171" result="shape"/></filter></defs></svg>
